X: 7205
T:Hamnavoe polka
R:Polka
O:Shetland
M:4/4
K:G
{D}G2F2 E2D2 | A>B c/B/A d>B G2 |\
{A}e2d2 c2B2 | A>B A>G F<A d2 |\
{D}G2F2 E2D2 | A>B c/B/A d>B G2 |
eg3 dg3      | {F}G2F2 G4 :: \
{f}g2f2 e>f g/f/e | d2B2 A>B c/B/A |
   G2G2 G>A B>A   | G2A2 {G}F4 |\
{f}g2f2 e>f g/f/e | d2B2 A>B c/B/A | \
   d2B2 A>B c/B/A | G2F2 G4 :|
